images/themes/default/mAddToProject.svg

<svg enable-background="new" height="24" width="24" xmlns="http://www.w3.org/2000/svg" xmlns:xlink="http://www.w3.org/1999/xlink"><filter id="a" color-interpolation-filters="sRGB"><feFlood flood-opacity=".5" result="flood"/><feComposite in="flood" in2="SourceGraphic" operator="in" result="composite1"/><feGaussianBlur result="blur" stdDeviation="2"/><feOffset dx="1.5" dy="1.5" result="offset"/><feComposite in="SourceGraphic" in2="offset" result="composite2"/></filter><clipPath id="b"><path d="m41.456 282.456h170.306v157.495h-170.306z"/></clipPath><g clip-path="url(#b)" filter="url(#a)" stroke-width=".719" transform="matrix(.09395 0 0 .1016 .105 -25.695)"><path d="m17.678 270.142h218.192v181.828h-218.192z" fill="#b9df4f" stroke="#f4e9d4" stroke-width="4.527"/><path d="m149.643 297.429 56.786 46.071-47.143 61.071-58.572-48.571z" fill="#159401" stroke="#000"/><g stroke="#fcfcb4"><path d="m7.87 281.042 204.507 168.257" fill="#fcfc48" stroke-width="11.072"/><path d="m67.68 331.256-70.71 86.368" fill="none" stroke-width="7.186"/><path d="m157.584 406.513 106.57-134.856" fill="none" stroke-width="3.593"/><path d="m100.005 358.53 81.317-100.005" fill="none" stroke-width="7.186"/><path d="m150.008 297.416 56.568 45.962 19.193 103.036" fill="none" stroke-width="3.593"/></g><path d="m118.188 375.703-112.632 31.315" fill="none" stroke="#fcfcb0" stroke-width="3.593"/></g><path d="m2.5 1.5h19v19h-19z" fill="none" opacity=".579" stroke="#159401"/><rect fill="#3c5a6e" height="11" rx="2.01" width="11" x="13" y="13"/><path d="m14 19 9-.01v-2c0-2.99-1-2.99-4.5-2.99s-4.5 0-4.5 3z" fill="#fcffff" fill-rule="evenodd" opacity=".3"/><g fill="none" stroke="#fff" stroke-linecap="round" stroke-linejoin="round"><path d="m17.7 15.75h-2.5v5.5h2.5" stroke-width="1.5"/><path d="m19.493 20.48-1.5-1.99 1.5-1.99m3.007 1.98h-3.397"/></g></svg>

<svg xmlns="http://www.w3.org/2000/svg" height="24" width="24" enable-background="new"><filter id="b" color-interpolation-filters="sRGB"><feFlood flood-opacity=".5" result="flood"/><feComposite in="flood" in2="SourceGraphic" operator="in" result="composite1"/><feGaussianBlur result="blur" stdDeviation="2"/><feOffset dx="1.5" dy="1.5" result="offset"/><feComposite in="SourceGraphic" in2="offset" result="composite2"/></filter><clipPath id="a"><path d="M41.456 282.456h170.306v157.495H41.456z"/></clipPath><g clip-path="url(#a)" transform="matrix(.09395 0 0 .1016 .105 -25.695)" stroke-width=".719" filter="url(#b)"><path d="M17.678 270.142H235.87V451.97H17.678z" fill="#b9df4f" stroke="#f4e9d4" stroke-width="4.527"/><path d="M149.643 297.429l56.786 46.071-47.143 61.071L100.714 356z" fill="#159401" stroke="#000"/><path d="M7.87 281.042l204.507 168.257" fill="#fcfc48" stroke="#fcfcb4" stroke-width="11.072"/><path d="M67.68 331.256l-70.71 86.368" fill="none" stroke="#fcfcb4" stroke-width="7.186"/><path d="M157.584 406.513l106.57-134.856" fill="none" stroke="#fcfcb4" stroke-width="3.593"/><path d="M100.005 358.53l81.317-100.005" fill="none" stroke="#fcfcb4" stroke-width="7.186"/><path d="M150.008 297.416l56.568 45.962 19.193 103.036" fill="none" stroke="#fcfcb4" stroke-width="3.593"/><path d="M118.188 375.703L5.556 407.018" fill="none" stroke="#fcfcb0" stroke-width="3.593"/></g><path style="isolation:auto;mix-blend-mode:normal" overflow="visible" d="M2.5 1.5h19v19h-19z" color="#000" opacity=".579" fill="none" stroke="#159401" enable-background="accumulate"/><rect x="13" y="13" width="11" height="11" rx="2.01" ry="2.01" fill="#3c5a6e"/><path d="M14 19l9-.01v-2C23 14 22 14 18.5 14S14 14 14 17z" opacity=".3" fill="#fcffff" fill-rule="evenodd"/><path d="M17.7 15.75h-2.5v5.5h2.5" fill="none" stroke="#fff" stroke-width="1.5" stroke-linecap="round" stroke-linejoin="round"/><path d="M19.493 20.48l-1.5-1.99 1.5-1.99m3.007 1.98h-3.397" fill="none" stroke="#fff" stroke-linecap="round" stroke-linejoin="round"/></svg>
